img/soon/youtube.svg

<svg width="24" height="24" viewBox="0 0 24 24" fill="none" xmlns="http://www.w3.org/2000/svg">
<path d="M23.4735 6.67642C24 8.5192 24 12.468 24 12.468C24 12.468 24 16.3729 23.4735 18.2596C23.2102 19.3126 22.3766 20.1024 21.3675 20.3656C19.4808 20.8483 12.0219 20.8483 12.0219 20.8483C12.0219 20.8483 4.5192 20.8483 2.63254 20.3656C1.6234 20.1024 0.789762 19.3126 0.526508 18.2596C0 16.3729 0 12.468 0 12.468C0 12.468 0 8.5192 0.526508 6.67642C0.789762 5.6234 1.6234 4.78976 2.63254 4.52651C4.5192 4 12.0219 4 12.0219 4C12.0219 4 19.4808 4 21.3675 4.52651C22.3766 4.78976 23.2102 5.6234 23.4735 6.67642ZM9.5649 16.0219L15.7952 12.468L9.5649 8.91408V16.0219Z" fill="white"/>
</svg>

<svg width="24" height="24" viewBox="0 0 24 24" fill="none" xmlns="http://www.w3.org/2000/svg"><path d="M23.474 6.676C24 8.52 24 12.468 24 12.468s0 3.905-.526 5.792a2.927 2.927 0 01-2.107 2.106c-1.886.482-9.345.482-9.345.482s-7.503 0-9.39-.482A2.926 2.926 0 01.528 18.26C0 16.373 0 12.468 0 12.468s0-3.949.527-5.792a2.984 2.984 0 012.106-2.15C4.519 4 12.022 4 12.022 4s7.459 0 9.345.527c1.01.263 1.843 1.096 2.107 2.15zm-13.91 9.346l6.231-3.554-6.23-3.554v7.108z" fill="#fff"/></svg>
